X:1
T:Title
%%score 1 { 2 | 3 }
L:1/8
Q:1/4=105
M:4/4
K:G
V:1 treble nm="Grand Piano, Soprano"
V:2 bass nm="Choir Pad, Benghazi, 98.98 D"
V:3 bass 
V:1
 [B,D]2 [DG]>[DF] [DG]>[DA] [DB]2 | D2 [CF]2 [CE]4 | [CE]2 [B,D]>[CE] [CF]>[B,G] [DA]2 | %3
w: By~A.~J.~Robertson,~1902 * * * * *|||
 [Dd]2 [DB]6 | [B,D]2 [DG]>[DF] [DG]>[DA] [DB]2 | D2 [CF]2 [CE]4 | %6
w: |||
 [CE]2 [B,D]>[CE] [CF]>[B,G] [CA]2 | [DB]2 [B,G]6 | [DB]2 [Gd]>[Ge] [Gd]>[Gc] [GB]2 | %9
w: |||
 [FA]2 [GB]2 [Gd]4 | [GB]2 [Gd]>[Ge] [Gd]>[Gc] [DB]2 | [^CG]2 [DA]6 | %12
w: |||
 [B,D]2 [DG]>[DF] [DG]>[DA] [DB]2 | D2 [CF]2 [CE]4 | [CE]2 [B,D]>[CE] [CF]>[B,G] [CA]2 | %15
w: |||
 [DB]2 [B,G]6- | [B,G]2 z2 z4 |] %17
w: ||
V:2
 G,2 B,>A, G,>F, G,2 | G,2 G,2 G,4 | G,2 G,>F, A,>G, F,2 | F,2 G,6 | G,2 B,>A, G,>F, G,2 | %5
 G,2 G,2 G,4 | G,2 G,>F, A,>G, F,2 | F,2 G,6 | G,2 B,>[K:treble]C B,>E D2 | D2 D2[K:bass] B,4 | %10
 D2 B,>C B,>A, G,F, | G,2 F,6 | G,2 B,>A, G,>F, G,2 | G,2 G,2 G,4 | G,2 G,>F, A,>G, F,2 | %15
 F,2 G,6- | G,2 z2 z4 |] %17
V:3
 G,,2 G,,>A,, B,,>D, z2 | B,,2 C,2 C,4 | C,2 D,>D, D,>D, D,2 | D,2 z2 z4 | G,,2 G,,>A,, B,,>D, z2 | %5
 B,,2 C,2 C,4 | C,2 D,>D, D,>D, D,2 | D,2 G,,6 | z2 G,>G, G,>G, G,2 | D,2 G,2 G,4 | %10
 G,2 G,>G, G,>G, z2 | E,2 D,6 | G,,2 G,,>A,, B,,>D, z2 | B,,2 C,2 C,4 | C,2 D,>D, D,>D, D,2 | %15
 D,2 G,,6- | G,,2 z2 z4 |] %17

